!!!COM: Frescobaldi, Girolamo
!!!CDT: 1583///-1643
!!!ONM: No. 21
!!!OTL: No. 21: Canzon Quarta &agrave; 2 Canti
!!!OPR: Canzoni da sonare a una, due, tre et quattro, libro primo
!!!PPP: Venezia
!!!PDT: 1634
!!!URL: http://icking-music-archive.org/ByComposer/Frescobaldi.html
!!!ONB: Andrea Friggi, ed.
**kern	**kern	**kern
!Basso ad Organo	!Canto Secondo	!Canto Primo
*staff3	*staff2	*staff1
*Icallo	*Ivioln	*Ivioln
*clefC3	*clefG2	*clefG2
*k[]	*k[]	*k[]
*met(C)	*met(C)	*met(C)
*M4/4	*M4/4	*M4/4
*MM120	*MM120	*MM120
=1-	=1-	=1-
1a	1r	2r
.	.	2ee\
=2	=2	=2
2g#\	1r	4.ee\
.	.	16dd\LL
.	.	16ee\JJ
4a\	.	8cc\L
.	.	8a\
8gn\L	.	8ee\
8f\J	.	8ff\J
=3	=3	=3
4.e\	1r	8.gg\L
.	.	16ff\Jk
.	.	8gg\L
8c\	.	8aa\J
4.d\	.	8.ff\L
.	.	16ee\Jk
.	.	8ff\L
8B/	.	8gg\J
=4	=4	=4
4c\	2r	8.ee\L
.	.	16ee\Jk
8B/L	.	8dd\L
8A/J	.	8cc\J
2G#/	4r	2b\
.	4ee\	.
=5	=5	=5
*clefF4	*	*
2.A\	4.ee\	1a
.	16dd\LL	.
.	16ee\JJ	.
.	8cc\L	.
.	8a\	.
8G\L	8ee\	.
8F\J	8ff\J	.
=6	=6	=6
4.E\	8.gg\L	2r
.	16ff\Jk	.
.	8gg\L	.
8C#/	8aa\J	.
2D\	8.ff\L	2aa\
.	16ee\Jk	.
.	8ff\L	.
.	16gg\L	.
.	16ff\JJ	.
=7	=7	=7
2AA/	2ee\	4.aa\
.	.	16gg\LL
.	.	16aa\JJ
2D\	2dd\	8ff\L
.	.	8dd\
.	.	8a\
.	.	8b\J
=8	=8	=8
4.A\	1r	8.cc\L
.	.	16b\Jk
.	.	8cc\L
8F#\	.	8dd\J
4G\	.	8b/L
.	.	16a/L
.	.	16b/JJ
4E\	.	8cc\L
.	.	8b\J
=9	=9	=9
4.F\	1r	8a/L
.	.	8b/J
.	.	2cc\
8E\	.	.
4D\	.	.
4GG/	.	4b\
=10	=10	=10
2C/	2r	2cc\
4.c\	2ee\	8r
.	.	8g/
.	.	8g/L
8B\	.	16a/L
.	.	16b/JJ
=11	=11	=11
4A\	4.ee\	8cc\L
.	.	8a\J
4E\	.	8ee\L
.	16dd\LL	16ff\L
.	16ee\JJ	16gg\JJ
4F\	8cc\L	8aa\L
.	8a\	8aa\
8E\L	8ee\	8gg\
8D\J	8ff\J	8ff\J
=12	=12	=12
4.C/	8.gg\L	2ee\
.	16ff\Jk	.
.	8gg\L	.
8AA/	8aa\J	.
2D\	8.ff\L	2r
.	16ee\Jk	.
.	8dd\L	.
.	8cc\J	.
=13	=13	=13
2E\	2b\	2r
4.A\	8r	2aa\
.	8cc\	.
.	8cc\L	.
8G\	16dd\L	.
.	16ee\JJ	.
=14	=14	=14
4.F\	8ff\L	4.aa\
.	8dd\J	.
.	8a\L	.
8E\	16b\L	16gg\LL
.	16cc\JJ	16aa\JJ
2D\	8dd\L	8ff\L
.	8dd\	8dd\
.	8cc\	8a\
.	8dd\J	8b\J
=15	=15	=15
2C/	8.ee\L	8.cc\L
.	16ff\Jk	16dd\Jk
.	8.dd\L	8b\L
.	.	8cc\J
.	16ee\Jk	.
2FF/	4ff\	4dd\
.	4ee\	[4cc\
=16	=16	=16
1GG	1dd	4cc\]
.	.	8b/L
.	.	8a/J
.	.	2b\
=17	=17	=17
2C/	2r	8r
.	.	8ee\
.	.	8ee\L
.	.	16ff\L
.	.	16gg\JJ
4AA/	2a/	8aa\L
.	.	8cc\J
4F\	.	8cc\L
.	.	16dd\L
.	.	16ee\JJ
=18	=18	=18
4F\	4.a/	8ff\L
.	.	8f\J
2D\	.	8a\L
.	16g/LL	16b\L
.	16a/JJ	16cc\JJ
.	8f/L	8dd\L
.	8d/	8dd\
4F\	8a/	8cc\
.	8b/J	8dd\J
=19	=19	=19
4C/	8.cc\L	2ee\
.	16b\Jk	.
4AA/	8cc\L	.
.	8dd\J	.
2GG/	8.b-/L	2r
.	16a/Jk	.
.	8b-\L	.
.	16cc\L	.
.	16b-\JJ	.
=20	=20	=20
2FF/	8.a/L	2r
.	16g/Jk	.
.	8a/L	.
.	16b-/L	.
.	16a/JJ	.
2C/	2g/	8r
.	.	8cc\
.	.	8cc\L
.	.	16dd\L
.	.	16ee\JJ
=21	=21	=21
2F\	2a/	8ff\L
.	.	8a\J
.	.	8a\L
.	.	16b\L
.	.	16cc\JJ
2D\	2r	8dd\L
.	.	8a\J
.	.	8ff\L
.	.	16gg\L
.	.	16ff\JJ
=22	=22	=22
4.C/	8r	2ee\
.	8g/	.
.	8g/L	.
8BB/	16a/L	.
.	16b/JJ	.
[2AA/	8cc/L	4r
.	8e/J	.
.	8e/L	4ee\
.	16f/L	.
.	16g/JJ	.
=23	=23	=23
2AA/]	8a/L	4.ee\
.	8e/J	.
.	8a\L	.
.	16b\L	16dd\LL
.	16cc\JJ	16ee\JJ
2AA/	8a\L	8cc\L
.	8ee\	8a\
.	8cc\	8ee\
.	8dd\J	8ff\J
=24	=24	=24
2GG/	4.b\	8.gg\L
.	.	16ff\Jk
.	.	8gg\L
.	8cc\	8aa\J
2D\	8.dd\L	8.ff\L
.	16cc\Jk	16ee\Jk
.	8dd\L	8ff\L
.	16ee\L	16gg\L
.	16dd\JJ	16ff\JJ
=25	=25	=25
1E	8cc\L	8ee\L
.	8cc\	8ee\
.	8b\	8dd\
.	8a\J	8cc\J
.	2g#/	2b\
=26	=26	=26
1AA	1a	1cc#
=27	=27	=27
1F#	2r	1r
.	[2dd\	.
=28	=28	=28
2G\	16dd\LL]	4r
.	16cc\	.
.	16b\	.
.	16a\JJ	.
.	2b\	[4gg\
2E\	.	16gg\LL]
.	.	16ff\
.	.	16ee\
.	.	16dd\JJ
.	[4cc\	[4ee\
=29	=29	=29
2F\	4cc\]	4ee\]
.	8b/L	8dd\L
.	8a/J	8cc\J
2D\	8r	8r
.	8dd\L	8ff\L
.	8b\	8dd\
.	8cc\J	8ee\J
=30	=30	=30
1E	4.g#/	2b\
.	8ee\	.
.	8.g#/L	8r
.	.	8ee\L
.	16a/Jk	.
.	8b\L	8g#\
.	8cc\J	8a\J
=31	=31	=31
2D\	8.dd\L	8.b\L
.	16ee\Jk	16cc\Jk
.	8cc\L	8a/L
.	8dd\J	8b/J
4C/	2ee\	[2cc\
4FF/	.	.
=32	=32	=32
1GG	1dd	2cc\]
.	.	2b\
=33	=33	=33
*M3/2	*M3/2	*M3/2
1C	1.r	2ee\
.	.	2cc\
2c\	.	2ee\
=34	=34	=34
2.G\	1.r	1dd
4A\	.	.
2B\	.	2r
=35	=35	=35
1A	2cc\	4a/
.	.	4b\
.	2a/	4cc\
.	.	4dd\
2A\	2cc\	4ee\
.	.	4ff\
=36	=36	=36
2.G\	2.b\	2gg\
.	.	2gg\
4F\	4a/	.
2E\	2g/	2gg\
=37	=37	=37
1.F	4a/	2.ff\
.	4g/	.
.	4a/	.
.	4b\	4gg\
.	4cc\	2aa\
.	4dd\	.
=38	=38	=38
1C	2ee\	1gg
.	2cc\	.
2C/	2ee\	2r
=39	=39	=39
1G	1.dd	4g/
.	.	4a/
.	.	4b\
.	.	4cc\
2GG/	.	4dd\
.	.	4ee\
=40	=40	=40
2.D\	1.r	2ff\
.	.	2dd\
4E\	.	.
2F\	.	2aa\
=41	=41	=41
2.E\	2ee\	1gg#
.	2b\	.
4F#\	.	.
2G\	2ee\	2r
=42	=42	=42
2.A\	1.cc#	1.r
4G\	.	.
2A\	.	.
=43	=43	=43
1.D	4dd\	2ff\
.	4a/	.
.	4b\	2dd\
.	4cc\	.
.	4dd\	2ff\
.	4b\	.
=44	=44	=44
1.C	4cc\	4ee\
.	4g/	4b\
.	4a/	4cc\
.	4b\	4dd\
.	4cc\	4ee\
.	4a/	4cc\
=45	=45	=45
1GG	1b	4dd\
.	.	4g/
.	.	4a/
.	.	4b\
2GG/	2r	4cc\
.	.	4dd\
=46	=46	=46
1C	4r	4ee\
.	4ee\	4cc\
.	4ff\	4dd\
.	4gg\	4ee\
2C/	4aa\	4ff\
.	4gg\	4ee\
=47	=47	=47
1.D	4ff\	4dd\
.	4a/	4cc\
.	4b\	4dd\
.	4cc\	4a/
.	4dd\	4b\
.	4cc\	4cc\
=48	=48	=48
*met(C)	*met(C)	*met(C)
*M4/4	*M4/4	*M4/4
2E\	4b\	2g#/
.	2ee\	.
2F\	.	[2a/
.	4dd\	.
=49	=49	=49
1E	1ee	2a/]
.	.	2g#/
=50:|!|:	=50:|!|:	=50:|!|:
*clefC3	*	*
2a\	4r	4r
.	4a/	4cc\
2g\	8.b\L	4.dd\
.	16b\Jk	.
.	8.a/L	.
.	.	8dd\
.	16b/Jk	.
=51	=51	=51
4c\	8.cc\L	4.ee\
.	16cc\k	.
4e\	8b\	.
.	8cc\J	8ee\
4d\	8.dd\L	4.ff\
.	16dd\k	.
4A/	8cc\	.
.	8dd\J	8ff\
=52	=52	=52
4G/	8.ee\L	4.gg\
.	16ee\k	.
4B-/	8dd\	.
.	8ee\J	8gg\
2A/	8.ff\L	2aa\
.	16ff\k	.
.	8ee\	.
.	8dd\J	.
=53	=53	=53
4c\	4ee\	1gg
4B-/	2ff\	.
2c\	.	.
.	4ee\	.
=54	=54	=54
*clefF4	*	*
1F	1ff	2aa\
.	.	2a/
=55	=55	=55
1E	1r	2.b\
.	.	4b\
=56	=56	=56
1AA	2r	2cc\
.	[2aa\	2cc#\
=57	=57	=57
1BB	4aa\]	1dd
.	8gg\L	.
.	8ff#\J	.
.	[2gg\	.
=58	=58	=58
2C#/	2gg\]	1r
[2D\	2ff\	.
=59	=59	=59
2D\]	2ee\	2r
2C#/	2a/	4r
.	.	[4aa\
=60	=60	=60
1BB	2.b\	4aa\]
.	.	8gg#\L
.	.	8ff#\J
.	.	2gg#\
.	4b\	.
=61	=61	=61
2AA/	1cc#	2aa\
*clefC3	*	*
2a\	.	4r
.	.	4a/
=62	=62	=62
4g\	4r	8.b\L
.	.	16b\Jk
4f\	4dd\	8a/L
.	.	8b/J
4e\	4.ee\	8cc/L
.	.	8g/
4c\	.	8cc/
.	8ee\	8b/J
=63	=63	=63
4d\	4.ff\	8.a\L
.	.	16dd\Jk
4f\	.	8cc\L
.	8ff\	8dd\J
4.e\	4.gg\	8.ee\L
.	.	16ee\Jk
.	.	8dd\L
8e\	8gg\	8ee\J
=64	=64	=64
2d\	2aa\	8ff\L
.	.	8ee\
.	.	8dd\
.	.	8cc\J
2e\	2r	2b\
=65	=65	=65
*clefF4	*	*
4A\	8r	2a/
.	8ff\	.
4AA/	8.ee\L	.
.	16ff#\Jk	.
4.BB/	2gg\	8r
.	.	8dd\
.	.	8.cc\L
8BB/	.	.
.	.	16dd\Jk
=66	=66	=66
4.C#/	8r	2ee\
.	8aa\	.
.	8.gg\L	.
8C#/	.	.
.	16aa\Jk	.
4.D\	2ff#\	8r
.	.	8a/
.	.	8.dd\L
8D\	.	.
.	.	16cc\Jk
=67	=67	=67
4.E\	8r	2b\
.	8ee\	.
.	8.dd\L	.
8E\	.	.
.	16ee\Jk	.
2F\	8.cc\L	2r
.	16a\Jk	.
.	8ff\L	.
.	8ee\J	.
=68	=68	=68
2G\	2dd\	8r
.	.	8dd\
.	.	8.gg\L
.	.	16ff\Jk
2A\	8r	4.ee\
.	8cc\	.
.	8.b\L	.
.	.	8ee\
.	16cc\Jk	.
=69	=69	=69
1D	4.dd\	8ff\L
.	.	8a\
.	.	8dd\
.	8a/	8cc\J
.	8dd\L	8b\L
.	8ee\	8cc\
.	8cc\	8a\
.	8dd\J	8b\J
=70	=70	=70
[1E	4.b\	8g\L
.	.	8b\
.	.	8ee\
.	8b\	8dd\J
.	8ee\L	8cc\L
.	8dd\	8b\
.	8cc\	8ee\
.	8dd\J	8ff#\J
=71	=71	=71
1E]	8b\L	8gg#\L
.	8ee\	8gg#\J
.	8cc\	2aa\
.	8dd\J	.
.	2b\	.
.	.	4gg#\
=72	=72	=72
0AA	0cc#	0aa
==:|!	==:|!	==:|!
*-	*-	*-
!!!ENC: Craig Stuart Sapp
!!!END: 2004/12/14/
